icons/mobile/24/svg/more-grid-24.svg

<svg width="24" height="24" viewBox="0 0 24 24" fill="none" xmlns="http://www.w3.org/2000/svg">
<path d="M7 16.5C7.27614 16.5 7.5 16.7239 7.5 17V18.5C7.5 18.7761 7.27614 19 7 19H5.5C5.22386 19 5 18.7761 5 18.5V17C5 16.7239 5.22386 16.5 5.5 16.5H7Z" fill="black"/>
<path d="M12.75 16.5C13.0261 16.5 13.25 16.7239 13.25 17V18.5C13.25 18.7761 13.0261 19 12.75 19H11.25C10.9739 19 10.75 18.7761 10.75 18.5V17C10.75 16.7239 10.9739 16.5 11.25 16.5H12.75Z" fill="black"/>
<path d="M18.5 16.5C18.7761 16.5 19 16.7239 19 17V18.5C19 18.7761 18.7761 19 18.5 19H17C16.7239 19 16.5 18.7761 16.5 18.5V17C16.5 16.7239 16.7239 16.5 17 16.5H18.5Z" fill="black"/>
<path d="M7 10.75C7.27614 10.75 7.5 10.9739 7.5 11.25V12.75C7.5 13.0261 7.27614 13.25 7 13.25H5.5C5.22386 13.25 5 13.0261 5 12.75V11.25C5 10.9739 5.22386 10.75 5.5 10.75H7Z" fill="black"/>
<path d="M12.75 10.75C13.0261 10.75 13.25 10.9739 13.25 11.25V12.75C13.25 13.0261 13.0261 13.25 12.75 13.25H11.25C10.9739 13.25 10.75 13.0261 10.75 12.75V11.25C10.75 10.9739 10.9739 10.75 11.25 10.75H12.75Z" fill="black"/>
<path d="M18.5 10.75C18.7761 10.75 19 10.9739 19 11.25V12.75C19 13.0261 18.7761 13.25 18.5 13.25H17C16.7239 13.25 16.5 13.0261 16.5 12.75V11.25C16.5 10.9739 16.7239 10.75 17 10.75H18.5Z" fill="black"/>
<path d="M7 5C7.27614 5 7.5 5.22386 7.5 5.5V7C7.5 7.27614 7.27614 7.5 7 7.5H5.5C5.22386 7.5 5 7.27614 5 7V5.5C5 5.22386 5.22386 5 5.5 5H7Z" fill="black"/>
<path d="M12.75 5C13.0261 5 13.25 5.22386 13.25 5.5V7C13.25 7.27614 13.0261 7.5 12.75 7.5H11.25C10.9739 7.5 10.75 7.27614 10.75 7V5.5C10.75 5.22386 10.9739 5 11.25 5H12.75Z" fill="black"/>
<path d="M18.5 5C18.7761 5 19 5.22386 19 5.5V7C19 7.27614 18.7761 7.5 18.5 7.5H17C16.7239 7.5 16.5 7.27614 16.5 7V5.5C16.5 5.22386 16.7239 5 17 5H18.5Z" fill="black"/>
</svg>

<!-- This Source Code Form is subject to the terms of the Mozilla Public
   - License, v. 2.0. If a copy of the MPL was not distributed with this
   - file, You can obtain one at http://mozilla.org/MPL/2.0/. -->
<svg xmlns="http://www.w3.org/2000/svg" width="24" height="24" fill="none" viewBox="0 0 24 24">
    <path fill="#000" d="M7 16.5a.5.5 0 0 1 .5.5v1.5a.5.5 0 0 1-.5.5H5.5a.5.5 0 0 1-.5-.5V17a.5.5 0 0 1 .5-.5zm5.75 0a.5.5 0 0 1 .5.5v1.5a.5.5 0 0 1-.5.5h-1.5a.5.5 0 0 1-.5-.5V17a.5.5 0 0 1 .5-.5zm5.75 0a.5.5 0 0 1 .5.5v1.5a.5.5 0 0 1-.5.5H17a.5.5 0 0 1-.5-.5V17a.5.5 0 0 1 .5-.5zM7 10.75a.5.5 0 0 1 .5.5v1.5a.5.5 0 0 1-.5.5H5.5a.5.5 0 0 1-.5-.5v-1.5a.5.5 0 0 1 .5-.5zm5.75 0a.5.5 0 0 1 .5.5v1.5a.5.5 0 0 1-.5.5h-1.5a.5.5 0 0 1-.5-.5v-1.5a.5.5 0 0 1 .5-.5zm5.75 0a.5.5 0 0 1 .5.5v1.5a.5.5 0 0 1-.5.5H17a.5.5 0 0 1-.5-.5v-1.5a.5.5 0 0 1 .5-.5zM7 5a.5.5 0 0 1 .5.5V7a.5.5 0 0 1-.5.5H5.5A.5.5 0 0 1 5 7V5.5a.5.5 0 0 1 .5-.5zm5.75 0a.5.5 0 0 1 .5.5V7a.5.5 0 0 1-.5.5h-1.5a.5.5 0 0 1-.5-.5V5.5a.5.5 0 0 1 .5-.5zm5.75 0a.5.5 0 0 1 .5.5V7a.5.5 0 0 1-.5.5H17a.5.5 0 0 1-.5-.5V5.5A.5.5 0 0 1 17 5z" />
</svg>
